X: 39032
T: Swan, The
R: hornpipe
M: 4/4
K: Gmajor
G2 (3BAG DGBd|~g2fg (3efg dB|~c2ec ~B2dB|ADFA GcBA|
G2 (3BAG DGBd|~g2fg (3efg dB|~c2ec ~B2dB|1 ADFA GcBA:|2 ADFA G2Bd||
|:gBd=f egce|edBG ADFA|GBdB ceag|(3fga ea dafa|
gBd=f egce|edBG ADFA|GBdB ceag|1 (3fed (3cBA G2Bd:|2 (3fed (3cBA GcBA||

